public/images/wallet/solar-wallet-outline.svg

<svg width="40" height="40" viewBox="0 0 40 40" fill="none" xmlns="http://www.w3.org/2000/svg">
<g id="solar:wallet-outline">
<path id="Vector" d="M31.6666 20C31.6666 20.442 31.491 20.8659 31.1784 21.1785C30.8659 21.4911 30.4419 21.6666 29.9999 21.6666C29.5579 21.6666 29.134 21.4911 28.8214 21.1785C28.5088 20.8659 28.3333 20.442 28.3333 20C28.3333 19.558 28.5088 19.134 28.8214 18.8215C29.134 18.5089 29.5579 18.3333 29.9999 18.3333C30.4419 18.3333 30.8659 18.5089 31.1784 18.8215C31.491 19.134 31.6666 19.558 31.6666 20Z" fill="#FEFEFE"/>
<path id="Vector_2" fill-rule="evenodd" clip-rule="evenodd" d="M16.5733 5.41669H21.7599C24.8233 5.41669 27.2499 5.41669 29.1483 5.67169C31.1016 5.93502 32.6833 6.48835 33.9316 7.73502C35.4716 9.27669 35.9632 11.34 36.1416 14.0184C37.1032 14.44 37.8299 15.335 37.9083 16.4684C37.9166 16.57 37.9166 16.6784 37.9166 16.7784V23.2217C37.9166 23.3217 37.9166 23.43 37.9099 23.53C37.8299 24.6634 37.1032 25.56 36.1416 25.9834C35.9632 28.66 35.4716 30.7234 33.9316 32.265C32.6833 33.5117 31.1016 34.065 29.1483 34.3284C27.2483 34.5834 24.8233 34.5834 21.7599 34.5834H16.5733C13.5099 34.5834 11.0833 34.5834 9.18492 34.3284C7.23159 34.065 5.64992 33.5117 4.40159 32.265C3.15492 31.0167 2.60159 29.435 2.33825 27.4817C2.08325 25.5817 2.08325 23.1567 2.08325 20.0934V19.9067C2.08325 16.8434 2.08325 14.4167 2.33825 12.5184C2.60159 10.565 3.15492 8.98335 4.40159 7.73502C5.64992 6.48835 7.23159 5.93502 9.18492 5.67169C11.0849 5.41669 13.5099 5.41669 16.5733 5.41669ZM33.6133 26.25H30.3833C26.8083 26.25 23.7483 23.5367 23.7483 20C23.7483 16.4634 26.8083 13.75 30.3816 13.75H33.6116C33.4216 11.515 32.9933 10.3334 32.1616 9.50335C31.4566 8.79835 30.4899 8.37502 28.8133 8.15002C27.1016 7.92002 24.8433 7.91669 21.6649 7.91669H16.6649C13.4866 7.91669 11.2299 7.92002 9.51492 8.15002C7.83992 8.37502 6.87325 8.79835 6.16825 9.50335C5.46325 10.2084 5.03992 11.175 4.81492 12.8517C4.58492 14.565 4.58159 16.8217 4.58159 20C4.58159 23.1784 4.58492 25.4367 4.81492 27.15C5.03992 28.825 5.46325 29.7917 6.16825 30.4967C6.87325 31.2017 7.83992 31.625 9.51659 31.85C11.2299 32.08 13.4866 32.0834 16.6649 32.0834H21.6649C24.8433 32.0834 27.1016 32.08 28.8149 31.85C30.4899 31.625 31.4566 31.2017 32.1616 30.4967C32.9933 29.6667 33.4233 28.4867 33.6133 26.25ZM8.74992 13.3334C8.74992 13.0018 8.88161 12.6839 9.11603 12.4495C9.35046 12.215 9.6684 12.0834 9.99992 12.0834H16.6666C16.9981 12.0834 17.316 12.215 17.5505 12.4495C17.7849 12.6839 17.9166 13.0018 17.9166 13.3334C17.9166 13.6649 17.7849 13.9828 17.5505 14.2172C17.316 14.4517 16.9981 14.5834 16.6666 14.5834H9.99992C9.6684 14.5834 9.35046 14.4517 9.11603 14.2172C8.88161 13.9828 8.74992 13.6649 8.74992 13.3334ZM34.8732 16.25H30.3833C28.0099 16.25 26.2483 18.015 26.2483 20C26.2483 21.985 28.0099 23.75 30.3816 23.75H34.9116C35.2549 23.7284 35.4033 23.4967 35.4149 23.3567V16.6434C35.4033 16.5034 35.2549 16.2717 34.9116 16.2517L34.8732 16.25Z" fill="#FEFEFE"/>
</g>
</svg>

<svg xmlns="http://www.w3.org/2000/svg" width="40" height="40" fill="none"><g fill="#FEFEFE"><path d="M31.667 20a1.667 1.667 0 1 1-3.334 0 1.667 1.667 0 0 1 3.334 0Z"/><path fill-rule="evenodd" d="M16.573 5.417h5.187c3.063 0 5.49 0 7.388.255 1.954.263 3.535.816 4.784 2.063 1.54 1.542 2.031 3.605 2.21 6.283.961.422 1.688 1.317 1.766 2.45.009.102.009.21.009.31v6.444c0 .1 0 .208-.007.308-.08 1.133-.807 2.03-1.768 2.453-.179 2.677-.67 4.74-2.21 6.282-1.249 1.247-2.83 1.8-4.784 2.063-1.9.255-4.325.255-7.388.255h-5.187c-3.063 0-5.49 0-7.388-.255-1.953-.263-3.535-.816-4.783-2.063-1.247-1.248-1.8-2.83-2.064-4.783-.255-1.9-.255-4.325-.255-7.389v-.186c0-3.064 0-5.49.255-7.389.264-1.953.817-3.535 2.064-4.783 1.248-1.247 2.83-1.8 4.783-2.063 1.9-.255 4.325-.255 7.388-.255Zm17.04 20.833h-3.23c-3.575 0-6.635-2.713-6.635-6.25s3.06-6.25 6.634-6.25h3.23c-.19-2.235-.619-3.417-1.45-4.247-.705-.705-1.672-1.128-3.349-1.353-1.711-.23-3.97-.233-7.148-.233h-5c-3.178 0-5.435.003-7.15.233-1.675.225-2.642.648-3.347 1.353-.705.705-1.128 1.672-1.353 3.349-.23 1.713-.233 3.97-.233 7.148 0 3.178.003 5.437.233 7.15.225 1.675.648 2.642 1.353 3.347.705.705 1.672 1.128 3.349 1.353 1.713.23 3.97.233 7.148.233h5c3.178 0 5.437-.003 7.15-.233 1.675-.225 2.642-.648 3.347-1.353.831-.83 1.261-2.01 1.451-4.247ZM8.75 13.333a1.25 1.25 0 0 1 1.25-1.25h6.667a1.25 1.25 0 1 1 0 2.5H10a1.25 1.25 0 0 1-1.25-1.25Zm26.123 2.917h-4.49c-2.373 0-4.135 1.765-4.135 3.75s1.762 3.75 4.134 3.75h4.53c.343-.022.491-.253.503-.393v-6.714c-.012-.14-.16-.371-.503-.391l-.039-.002Z" clip-rule="evenodd"/></g></svg>
